drivers/hs100/assets/icons/icon.svg

<?xml version="1.0" encoding="utf-8"?>
<svg id="svg2" width="500" height="500" viewBox="50 -18 500 500" xmlns="http://www.w3.org/2000/svg">
  <g id="g3777" transform="matrix(0.310562, 0, 0, 0.313093, 65.338432, 89.154274)">
    <path d="M 188.5,633.06651 C 180.3166,631.05227 173.05351,625.11756 168.83728,617 L 166.5,612.5 166,554.5 165.5,496.5 107,496 48.5,495.5 43.887152,492.78822 C 38.891718,489.85153 34.072164,484.86649 31.2687,479.7365 29.642527,476.76081 29.5,472.39026 29.5,425.5 l 0,-51 129,0 129,0 0,129.5 0,129.5 -48,0.15246 c -26.4,0.0839 -49.35,-0.17982 -51,-0.58595 z" id="path3775" style="fill:#4accd5;fill-opacity:1"/>
    <path d="M 329.5048,491.86957 C 329.2165,491.11631 329.09747,465.3 329.2403,434.5 l 0.2597,-56 28.5,-0.61905 c 29.42725,-0.63919 32.61456,-1.03849 46.33562,-5.80495 34.68701,-12.04966 57.90628,-49.45367 55.30834,-89.09639 -2.67641,-40.84011 -26.75687,-70.03448 -64.86315,-78.63799 -9.62064,-2.17211 -29.83303,-2.21399 -39.42452,-0.0817 -34.50797,7.67156 -60.29155,32.62885 -68.9497,66.74006 -1.26152,4.97012 -1.76331,13.0314 -2.13194,34.25 -0.43219,24.87669 -0.65257,27.75464 -2.12838,27.79482 -9.15197,0.24917 -111.66251,-0.22773 -111.95562,-0.52084 -0.87462,-0.87462 -0.0764,-60.64494 0.91512,-68.52398 8.32346,-66.14175 50.53342,-124.97192 111.14195,-154.90423 30.10604,-14.868255 57.83965,-21.306461 92.25228,-21.41586 33.72407,-0.107211 62.15686,5.973054 90,19.24623 56.23181,26.80641 93.77914,75.75549 105.97257,138.15259 14.08031,72.05278 -7.57254,142.64513 -58.75619,191.55622 -29.72635,28.40648 -64.80079,46.03209 -106.48236,53.5095 -9.73711,1.74678 -17.13481,2.18922 -43.46952,2.59985 -26.28079,0.40978 -31.8256,0.25943 -32.2597,-0.87473 z" id="path3761" style="fill:#4accd5;fill-opacity:1"/>
  </g>
  <g id="g3781" style="fill:#000000" transform="matrix(0.310562, 0, 0, 0.313093, 65.338432, 89.154274)">
    <path d="m 763.5,554.05464 c -1.1,-0.45022 -2.9,-1.81894 -4,-3.0416 -1.96737,-2.18675 -2,-3.63069 -2,-88.51103 l 0,-86.28802 5.1108,-5.85699 c 10.794,-12.36995 29.84338,-23.83714 47.3892,-28.52696 6.98169,-1.86613 11.09006,-2.27259 23,-2.27548 17.03101,-0.004 22.91629,1.28462 36.5,7.99283 33.30811,16.44894 49.93958,55.10628 40.07768,93.15448 -7.35489,28.3759 -30.90987,49.50934 -61.03826,54.76329 C 843.20415,496.39556 833.69933,497 824.40419,497 810.26755,497 808.98955,496.84898 808.03518,495.06574 807.46583,494.0019 807,487.89732 807,481.5 c 0,-6.39732 0.46583,-12.5019 1.03518,-13.56574 0.95179,-1.77844 2.22613,-1.93426 15.8185,-1.93426 20.29221,0 28.42355,-2.50226 38.37255,-11.80838 18.28395,-17.1025 19.45625,-49.45467 2.46121,-67.92232 -9.843,-10.69589 -23.51332,-15.2091 -39.95072,-13.1896 -9.55024,1.17334 -21.82598,7.12373 -27.58447,13.37095 L 793,390.95531 l 0,80.82235 c 0,61.52849 -0.28646,81.1088 -1.2,82.02234 -1.38416,1.38416 -25.02069,1.59684 -28.3,0.25464 z" id="path3773" style="fill:#000000;fill-opacity:1"/>
    <path d="m 680.20863,495.47487 c -8.18142,-1.77655 -15.66848,-5.31938 -20.9307,-9.90427 -5.59135,-4.87166 -10.9567,-15.84893 -12.25375,-25.0706 -1.07444,-7.63899 -1.44115,-144.24981 -0.39454,-146.97724 0.78742,-2.05198 32.10154,-17.83989 33.96543,-17.12465 1.08727,0.41722 1.42147,5.07837 1.63569,22.81312 L 682.5,341.5 l 21.23593,0.26985 c 25.01734,0.31789 22.48416,-1.71877 22.05256,17.73015 l -0.28849,13 -21.5,0.55029 c -11.825,0.30266 -21.63604,0.64016 -21.80232,0.75 -0.16627,0.10984 -0.16627,18.31221 0,40.44971 0.28754,38.28203 0.40123,40.42113 2.3252,43.75 1.19797,2.07274 3.83305,4.41752 6.46189,5.75 4.17609,2.11674 5.65842,2.25 25.02712,2.25 14.67964,0 20.93249,0.34438 21.78811,1.2 0.8112,0.8112 1.2,5.44444 1.2,14.3 0,8.85556 -0.3888,13.4888 -1.2,14.3 -1.77033,1.77033 -49.17369,1.50272 -57.59137,-0.32513 z" id="path3771" style="fill:#000000;fill-opacity:1"/>
    <path d="m 1031.0767,494.41111 -3.0767,-2.5889 0,-101.19608 0,-101.19609 16.1206,-8.27574 c 8.8663,-4.55166 16.7413,-8.03754 17.5,-7.74641 1.1611,0.44556 1.3794,18.0858 1.3794,111.45374 0,100.22605 -0.1526,110.98293 -1.5818,111.53138 -0.87,0.33385 -7.3604,0.60699 -14.4233,0.60699 -12.3562,0 -12.9577,-0.0978 -15.9182,-2.58889 z" id="path3769" style="fill:#000000;fill-opacity:1"/>
    <path d="m 1101.3083,495.9904 c -5.526,-2.22589 -5.3432,0.64679 -5.0648,-79.57478 L 1096.5,342.5 l 17,0 17,0 0.2563,76.43709 c 0.2028,60.48817 -0.01,76.60352 -1,77.23469 -1.6995,1.07897 -25.6989,0.92596 -28.448,-0.18138 z" id="path3767" style="fill:#000000;fill-opacity:1"/>
    <path d="m 1169.1101,495.60449 c -5.1026,-2.82815 -5.0367,-1.99808 -5.0747,-63.90415 -0.029,-48.14804 0.2026,-58.25057 1.3897,-60.5 1.8731,-3.54908 12.8246,-14.08664 18.8155,-18.10431 7.3985,-4.96165 20.4829,-10.86864 29.2594,-13.20926 10.4679,-2.7917 29.7086,-3.04272 40,-0.52184 26.2843,6.43835 46.7543,26.75962 53.4918,53.10305 1.8732,7.32417 2.0082,11.06038 2.0082,55.58499 0,42.60381 -0.17,47.79828 -1.5818,48.34004 -3.0867,1.18447 -30.9536,0.67155 -32.2182,-0.59301 -0.8975,-0.89753 -1.2,-12.46548 -1.2,-45.89466 0,-41.68914 -0.1329,-45.12489 -1.9761,-51.09243 -5.1173,-16.56801 -17.5497,-26.50741 -34.472,-27.5596 -13.1887,-0.82003 -24.2289,2.9429 -33.6765,11.47823 l -3.8754,3.50118 0,53.44938 c 0,34.93167 -0.3586,54.11951 -1.0352,55.38364 -0.9448,1.7655 -2.1881,1.93117 -14.25,1.89882 -9.0401,-0.0242 -13.9698,-0.45389 -15.6047,-1.36007 z" id="path3765" style="fill:#000000;fill-opacity:1"/>
    <path d="m 1345.3083,495.9904 c -5.595,-2.25369 -5.3401,3.08647 -5.0631,-106.07225 L 1340.5,289.5 l 16.6914,-8.4753 c 9.1802,-4.66141 17.0552,-8.11159 17.5,-7.66708 0.4447,0.44452 1.0336,30.58341 1.3086,66.9753 l 0.5,66.16708 27.3153,-32.25 27.3154,-32.25 19.9346,0 c 16.5699,0 19.9347,0.24009 19.9347,1.42243 0,0.78233 -13.7483,17.03269 -30.5518,36.1119 -16.8034,19.07922 -30.4159,35.25725 -30.25,35.95118 0.166,0.69394 15.5497,18.48103 34.186,39.52687 18.6364,21.04584 33.9364,38.99022 34,39.87639 0.1024,1.42427 -2.2373,1.64265 -20.1627,1.88203 l -20.2785,0.27079 -2.2215,-2.42987 c -1.2218,-1.33643 -14.8215,-17.74302 -30.2215,-36.45909 -15.4,-18.71607 -28.3375,-34.05698 -28.75,-34.09092 -0.4125,-0.0339 -0.75,15.49287 -0.75,34.50403 0,21.9147 -0.3789,35.27368 -1.0352,36.5 -0.9461,1.76782 -2.1723,1.92881 -14.25,1.87087 -7.2681,-0.0349 -14.2011,-0.46065 -15.4065,-0.94621 z" id="path3763" style="fill:#000000;fill-opacity:1"/>
    <path d="m 951.75198,435.25 c -2.52614,-2.83745 -15.85215,-31.54657 -15.30497,-32.97251 0.40068,-1.04416 6.68043,-1.25336 31.27717,-1.04198 L 998.5,401.5 l 0.27497,16.92555 c 0.20911,12.87126 -0.0304,17.11936 -1,17.73469 -0.70123,0.44502 -10.99273,0.81603 -22.86998,0.82445 -19.31831,0.0137 -21.75927,-0.16919 -23.15301,-1.73469 z" id="path3759" style="fill:#000000;fill-opacity:1"/>
    <path d="m 1095.3059,306.50167 c -3.4086,-2.38741 -5.6184,-9.50483 -5.1144,-16.47236 0.5415,-7.48633 4.1643,-13.1181 11.261,-17.50565 4.2568,-2.63178 5.808,-3.01981 11.9691,-2.99396 7.8521,0.0329 13.0003,2.09761 17.7754,7.12872 7.3715,7.76685 7.8588,21.80036 1.0274,29.59158 -1.3458,1.53494 -3.5771,1.75 -18.1569,1.75 -13.1488,0 -17.0695,-0.31311 -18.7616,-1.49833 z" id="path2987" style="fill:#000000;fill-opacity:1"/>
  </g>
</svg>

<?xml version="1.0" encoding="UTF-8" standalone="no"?>
<!DOCTYPE svg PUBLIC "-//W3C//DTD SVG 1.1//EN" "http://www.w3.org/Graphics/SVG/1.1/DTD/svg11.dtd">
<svg width="100%" height="100%" viewBox="0 0 524 925" version="1.1" xmlns="http://www.w3.org/2000/svg" xmlns:xlink="http://www.w3.org/1999/xlink" xml:space="preserve" xmlns:serif="http://www.serif.com/" style="fill-rule:evenodd;clip-rule:evenodd;stroke-linecap:round;stroke-linejoin:round;stroke-miterlimit:1.5;">
    <g transform="matrix(1.18243,0,0,1.04547,-90.6299,-23.9529)">
        <path d="M298.068,123.138C438.001,121.657 499.475,249.905 496.793,465.215C493.918,695.896 430.336,806.396 298.068,807.291C153.177,808.271 99.942,668.839 99.343,465.215C98.676,238.694 165.672,124.54 298.068,123.138Z" style="fill:none;stroke:black;stroke-width:20.31px;"/>
    </g>
    <g transform="matrix(1.00342,0,0,0.854698,-36.9475,97.7469)">
        <path d="M298.068,123.138C438.001,121.657 499.475,249.905 496.793,465.215C493.918,695.896 430.336,806.396 298.068,807.291C153.177,808.271 99.942,668.839 99.343,465.215C98.676,238.694 165.672,124.54 298.068,123.138Z" style="fill:none;stroke:black;stroke-width:12.88px;"/>
    </g>
    <circle cx="261.814" cy="280.87" r="33.798" style="fill:none;stroke:black;stroke-width:18.67px;"/>
    <circle cx="261.814" cy="146.33" r="11.069" style="fill:none;stroke:black;stroke-width:10px;"/>
    <g id="Creation-Socket-EU" serif:id="Creation/Socket-EU" transform="matrix(0.485875,0,0,0.485875,102.62,445.187)">
        <path id="Combined-Shape" d="M601.51,367.238L600.894,373.146C597.347,407.159 587.543,439.796 571.722,470.263L570.868,471.893L559.937,492.445L559.937,367.238L601.51,367.238ZM101.337,367.238L101.337,492.411L90.21,471.541C82.869,457.641 76.747,443.261 71.981,428.716C66.423,411.814 62.585,394.514 60.552,377.187L60.316,375.108L59.49,367.238L101.337,367.238ZM559.94,165.25L570.002,183.787C585.802,212.89 595.94,244.065 600.173,276.569L600.398,278.343L601.33,286.104L559.94,286.104L559.94,165.25ZM101.335,165.385L101.335,286.104L59.662,286.104L60.655,278.068C62.917,260.317 66.908,243.055 72.527,226.723C77.478,212.128 83.457,198.28 90.339,185.474L91.283,183.735L101.335,165.385Z" style="fill:none;fill-rule:nonzero;stroke:black;stroke-width:10.7px;stroke-linecap:butt;stroke-miterlimit:4;"/>
        <path id="Combined-Shape-path" d="M431.303,328.848C431.303,305.118 450.538,285.883 474.267,285.883C497.997,285.883 517.232,305.118 517.232,328.848C517.232,352.577 497.997,371.813 474.267,371.813C450.538,371.813 431.303,352.577 431.303,328.848Z" style="fill-rule:nonzero;"/>
        <path id="Combined-Shape-path1" serif:id="Combined-Shape-path" d="M142.115,328.848C142.115,305.118 161.35,285.883 185.08,285.883C208.81,285.883 228.045,305.118 228.045,328.848C228.045,352.577 208.81,371.813 185.08,371.813C161.35,371.813 142.115,352.577 142.115,328.848Z" style="fill-rule:nonzero;"/>
        <circle id="Oval" cx="330.5" cy="330.5" r="315.628" style="fill:none;stroke:black;stroke-width:38.42px;stroke-linecap:butt;stroke-linejoin:miter;stroke-miterlimit:4;"/>
    </g>
    <g id="path3775" transform="matrix(0.0938843,0,0,0.0938843,191.031,340.681)">
        <path d="M188.5,633.067C180.317,631.052 173.054,625.118 168.837,617L166.5,612.5L165.5,496.5L48.5,495.5L43.887,492.788C38.892,489.852 34.072,484.866 31.269,479.736C29.643,476.761 29.5,472.39 29.5,425.5L29.5,374.5L287.5,374.5L287.5,633.5L239.5,633.652C213.1,633.736 190.15,633.473 188.5,633.067Z" style="fill-rule:nonzero;"/>
    </g>
    <g id="path3761" transform="matrix(0.0938843,0,0,0.0938843,191.031,340.681)">
        <path d="M329.505,491.87C329.217,491.116 329.097,465.3 329.24,434.5L329.5,378.5L358,377.881C387.427,377.242 390.615,376.842 404.336,372.076C439.023,360.026 462.242,322.622 459.644,282.98C456.968,242.139 432.887,212.945 394.781,204.342C385.16,202.17 364.948,202.128 355.356,204.26C320.848,211.931 295.065,236.889 286.407,271C285.145,275.97 284.643,284.031 284.275,305.25C283.842,330.127 283.622,333.005 282.146,333.045C272.994,333.294 170.484,332.817 170.191,332.524C169.316,331.649 170.114,271.879 171.106,264C179.429,197.858 221.639,139.028 282.248,109.096C312.354,94.227 340.087,87.789 374.5,87.68C408.224,87.573 436.657,93.653 464.5,106.926C520.732,133.733 558.279,182.682 570.473,245.079C584.553,317.131 562.9,387.724 511.716,436.635C481.99,465.041 446.916,482.667 405.234,490.144C395.497,491.891 388.099,492.334 361.764,492.744C335.484,493.154 329.939,493.004 329.505,491.87L329.505,491.87Z" style="fill-rule:nonzero;"/>
    </g>
    <g id="path3773" transform="matrix(0.0938843,0,0,0.0938843,191.031,340.681)">
        <path d="M763.5,554.055C762.4,553.604 760.6,552.236 759.5,551.013C757.533,548.826 757.5,547.382 757.5,462.502L757.5,376.214L762.611,370.357C773.405,357.987 792.454,346.52 810,341.83C816.982,339.964 821.09,339.557 833,339.555C850.031,339.551 855.916,340.839 869.5,347.547C902.808,363.996 919.44,402.654 909.578,440.702C902.223,469.078 878.668,490.211 848.539,495.465C843.204,496.396 833.699,497 824.404,497C810.268,497 808.99,496.849 808.035,495.066C807.466,494.002 807,487.897 807,481.5C807,475.103 807.466,468.998 808.035,467.934C808.987,466.156 810.261,466 823.854,466C844.146,466 852.277,463.498 862.226,454.192C880.51,437.089 881.682,404.737 864.687,386.269C854.844,375.573 841.174,371.06 824.737,373.08C815.186,374.253 802.911,380.203 797.152,386.451L793,390.955L793,471.778C793,533.306 792.714,552.886 791.8,553.8C790.416,555.184 766.779,555.397 763.5,554.055Z" style="fill-rule:nonzero;"/>
    </g>
    <g id="path3771" transform="matrix(0.0938843,0,0,0.0938843,191.031,340.681)">
        <path d="M680.209,495.475C672.027,493.698 664.54,490.155 659.278,485.571C653.687,480.699 648.321,469.722 647.024,460.5C645.95,452.861 645.583,316.25 646.63,313.523C647.417,311.471 678.731,295.683 680.595,296.398C681.682,296.815 682.017,301.476 682.231,319.211L682.5,341.5L703.736,341.77C728.753,342.088 726.22,340.051 725.788,359.5L725.5,372.5L704,373.05C692.175,373.353 682.364,373.69 682.198,373.8C682.031,373.91 682.031,392.113 682.198,414.25C682.485,452.532 682.599,454.671 684.523,458C685.721,460.073 688.356,462.418 690.985,463.75C695.161,465.867 696.643,466 716.012,466C730.692,466 736.944,466.344 737.8,467.2C738.611,468.011 739,472.644 739,481.5C739,490.356 738.611,494.989 737.8,495.8C736.03,497.57 688.626,497.303 680.209,495.475Z" style="fill-rule:nonzero;"/>
    </g>
    <g id="path3769" transform="matrix(0.0938843,0,0,0.0938843,191.031,340.681)">
        <path d="M1031.08,494.411L1028,491.822L1028,289.43L1044.12,281.154C1052.99,276.603 1060.86,273.117 1061.62,273.408C1062.78,273.853 1063,291.494 1063,384.862C1063,485.088 1062.85,495.845 1061.42,496.393C1060.55,496.727 1054.06,497 1047,497C1034.64,497 1034.04,496.902 1031.08,494.411Z" style="fill-rule:nonzero;"/>
    </g>
    <g id="path3767" transform="matrix(0.0938843,0,0,0.0938843,191.031,340.681)">
        <path d="M1101.31,495.99C1095.78,493.765 1095.96,496.637 1096.24,416.416L1096.5,342.5L1130.5,342.5L1130.76,418.937C1130.96,479.425 1130.75,495.541 1129.76,496.172C1128.06,497.251 1104.06,497.098 1101.31,495.99Z" style="fill-rule:nonzero;"/>
    </g>
    <g id="path3765" transform="matrix(0.0938843,0,0,0.0938843,191.031,340.681)">
        <path d="M1169.11,495.604C1164.01,492.776 1164.07,493.606 1164.04,431.7C1164.01,383.552 1164.24,373.45 1165.42,371.2C1167.3,367.651 1178.25,357.114 1184.24,353.096C1191.64,348.134 1204.72,342.227 1213.5,339.887C1223.97,337.095 1243.21,336.844 1253.5,339.365C1279.78,345.803 1300.25,366.125 1306.99,392.468C1308.87,399.792 1309,403.528 1309,448.053C1309,490.657 1308.83,495.851 1307.42,496.393C1304.33,497.577 1276.46,497.065 1275.2,495.8C1274.3,494.902 1274,483.335 1274,449.905C1274,408.216 1273.87,404.78 1272.02,398.813C1266.91,382.245 1254.47,372.306 1237.55,371.253C1224.36,370.433 1213.32,374.196 1203.88,382.732L1200,386.233L1200,439.682C1200,474.614 1199.64,493.802 1198.96,495.066C1198.02,496.831 1196.78,496.997 1184.71,496.965C1175.67,496.94 1170.75,496.511 1169.11,495.604Z" style="fill-rule:nonzero;"/>
    </g>
    <g id="path3763" transform="matrix(0.0938843,0,0,0.0938843,191.031,340.681)">
        <path d="M1345.31,495.99C1339.71,493.737 1339.97,499.077 1340.25,389.918L1340.5,289.5L1357.19,281.025C1366.37,276.363 1374.25,272.913 1374.69,273.358C1375.14,273.802 1375.73,303.941 1376,340.333L1376.5,406.5L1403.82,374.25L1431.13,342L1451.07,342C1467.63,342 1471,342.24 1471,343.422C1471,344.205 1457.25,360.455 1440.45,379.534C1423.64,398.614 1410.03,414.792 1410.2,415.486C1410.36,416.179 1425.75,433.967 1444.38,455.012C1463.02,476.058 1478.32,494.003 1478.38,494.889C1478.49,496.313 1476.15,496.531 1458.22,496.771L1437.94,497.042L1435.72,494.612C1434.5,493.275 1420.9,476.869 1405.5,458.153C1390.1,439.437 1377.16,424.096 1376.75,424.062C1376.34,424.028 1376,439.555 1376,458.566C1376,480.48 1375.62,493.839 1374.96,495.066C1374.02,496.834 1372.79,496.995 1360.71,496.937C1353.45,496.902 1346.51,496.476 1345.31,495.99Z" style="fill-rule:nonzero;"/>
    </g>
    <g id="path3759" transform="matrix(0.0938843,0,0,0.0938843,191.031,340.681)">
        <path d="M951.752,435.25C949.226,432.413 935.9,403.703 936.447,402.277C936.848,401.233 943.127,401.024 967.724,401.236L998.5,401.5L998.775,418.426C998.984,431.297 998.745,435.545 997.775,436.16C997.074,436.605 986.782,436.976 974.905,436.985C955.587,436.998 953.146,436.816 951.752,435.25Z" style="fill-rule:nonzero;"/>
    </g>
    <g id="path2987" transform="matrix(0.0938843,0,0,0.0938843,191.031,340.681)">
        <path d="M1095.31,306.502C1091.9,304.114 1089.69,296.997 1090.19,290.029C1090.73,282.543 1094.36,276.911 1101.45,272.524C1105.71,269.892 1107.26,269.504 1113.42,269.53C1121.27,269.563 1126.42,271.627 1131.2,276.658C1138.57,284.425 1139.06,298.459 1132.22,306.25C1130.88,307.785 1128.65,308 1114.07,308C1100.92,308 1097,307.687 1095.31,306.502Z" style="fill-rule:nonzero;"/>
    </g>
</svg>
